svg/wownero.svg

<svg xmlns="http://www.w3.org/2000/svg" viewBox="0 0 64 64"><path d="M61.48 19.54a32 32 0 1 0 0 24.92 32.07 32.07 0 0 0 0-24.92" style="fill:#ff2ad4"/><path d="M7.37 26.26h8.16v22.01l4.64-4.4 11.88-11.25 11.82 11.25 4.62 4.41v-6.39l.05-15.62h8.07a25.63 25.63 0 0 1 .62 5.6 25.25 25.25 0 0 1-50.5 0 25.65 25.65 0 0 1 .62-5.61m-2.09-2.74A28 28 0 1 0 60 31.87a27.77 27.77 0 0 0-1.27-8.35H45.82l-.06 18.36-13.71-13.05-13.74 13.05V23.52Z" style="fill:#fff"/><path d="M18.27 20.77H21v14.75l9.1-8.66 1.9-1.8 1.89 1.81L43 35.49V20.77h14.65a28 28 0 0 0-51.3 0Z" style="fill:#fc0"/></svg>

<svg id="svg898" xmlns="http://www.w3.org/2000/svg" viewBox="0 0 64 64"><defs><style>.cls-1{fill:#ff2ad4;}.cls-2{fill:#fff;}.cls-3{fill:#fc0;}</style></defs><path id="path6" class="cls-1" d="M61.48,19.54a32,32,0,1,0,0,24.92A32.07,32.07,0,0,0,61.48,19.54Z"/><path class="cls-2" d="M7.37,26.26h8.16l0,15.62v6.39l4.64-4.4L32.05,32.62,43.87,43.87l4.62,4.41,0-6.39.05-15.62h8.07a25.63,25.63,0,0,1,.62,5.6,25.25,25.25,0,0,1-50.5,0,25.65,25.65,0,0,1,.62-5.61M5.26,23.52A28,28,0,1,0,60,31.87a27.77,27.77,0,0,0-1.27-8.35H45.82l-.06,18.36L32.05,28.83,18.31,41.88l0-18.36Z"/><path class="cls-3" d="M18.27,20.77H21v2.75l0,12,9.1-8.66,1.9-1.8,1.89,1.81L43,35.49l0-12V20.77H57.65a28,28,0,0,0-51.3,0Z"/></svg>
